X: 7
T: The Flowers Of Red Hill
R: reel
M: 4/4
L: 1/8
K: Ador
|: "a"e~A3 gAfA | e~A3 "G"eAdA | "a"e~A3 edea | "G"gedB GABd :|
| "a"eaag b2ag | eaag egdg | eaag b2ag | e2de "G"gdBd |
"a"eaag b2ag | edef "G"~g3a | "a"bgaf "G"g2ed | "D/F#"eaag "G"edBd ||


Tune 442	Setting 13306

